X:498
T:Reel 498
M:4/4
K:Gmaj
L:1/8
B|d2BG GBde|dcBG AGEG|d2Bd gedB|cedc BGGE|D2BG AGBG|cBcd efge|d2BG AGEe|dBAc BGG|f|g2gf gdBd|gfgd edBA|g2gf edef|gaba geef|gfge dBed|c2BG AGEG|DGG2 Bcde|dBAc BGG|f|g2fg  (3efg df|gdBG AGEG|DGBG AGef|gedc BGGe|dged deedBd|efge fgdg|bgaf gedc|BcAc BGG|
